X: 2
T: The Dawning Of The Day
R: barndance
M: 4/4
L: 1/8
K: Dmaj
DE | "D"F2 F2 F2 EF | A2 A2 "G"B2 AF | "D (A)"D2 E2 "G"D2 D2 | "D"D6 A2 |
"G"B3 A B2 d2 | "D"F3 E D2 FG | A2 F2 d2 F2 | "A"E6 A2 |
"G"B3 A B2 d2 | "D"F3 E D2 FG | A2 F2 d2 F2 | "A"E6 DE |
"D"F2 F2 F2 EF | A2 A2 "G"B2 AF | "D (A)"D2 E2 "G"D2 D2 | "D"D6 |]
